icon-themes/breeze_svg/cmd/lc_connectorlinesarrowend.svg

<svg viewBox="0 0 24 24" xmlns="http://www.w3.org/2000/svg"><path d="m7 4c-1.65685 0-3 1.34315-3 3s1.34315 3 3 3c1.30132 0 2.39699-.84165 2.8125-2h.5l3.75 9.375.25.625c.540485.000731.345107-.003463.6875 0 .09338.000944-.069679-.001515.1875 0h1.8125v2l3-3-3-3v2h-1.3125l-3.75-9.375-.25-.625h-.6875-.21875-.96875c-.41551-1.15835-1.51118-2-2.8125-2zm0 2c.55228 0 1 .44772 1 1s-.44772 1-1 1-1-.44772-1-1 .44772-1 1-1z" fill="#4d4d4d"/></svg>

<svg xmlns="http://www.w3.org/2000/svg" viewBox="0 0 24 24">
 <path 
     style="fill:#4d4d4d" 
     d="M 7 4 C 5.34315 4 4 5.34315 4 7 C 4 8.65685 5.34315 10 7 10 C 8.30132 10 9.39699 9.15835 9.8125 8 L 10.3125 8 L 14.0625 17.375 L 14.3125 18 C 14.852985 18.000731 14.657607 17.996537 15 18 C 15.09338 18.000944 14.930321 17.998485 15.1875 18 L 17 18 L 17 20 L 20 17 L 17 14 L 17 16 L 15.6875 16 L 11.9375 6.625 L 11.6875 6 L 11 6 L 10.78125 6 L 9.8125 6 C 9.39699 4.84165 8.30132 4 7 4 z M 7 6 C 7.55228 6 8 6.44772 8 7 C 8 7.55228 7.55228 8 7 8 C 6.44772 8 6 7.55228 6 7 C 6 6.44772 6.44772 6 7 6 z "
     />
 </svg>
